tmp/iccdev-tool-tests/test-warmfilm-5x5x5.cube
TITLE "Warm Film Grade"
LUT_3D_SIZE 5
DOMAIN_MIN 0.0 0.0 0.0
DOMAIN_MAX 1.0 1.0 1.0
0.020 0.010 0.005
0.270 0.010 0.005
0.520 0.010 0.005
0.770 0.010 0.005
1.000 0.015 0.008
0.020 0.260 0.005
0.270 0.260 0.005
0.520 0.260 0.005
0.770 0.260 0.005
1.000 0.265 0.008
0.020 0.510 0.005
0.270 0.510 0.005
0.520 0.510 0.005
0.770 0.510 0.005
1.000 0.515 0.008
0.020 0.760 0.005
0.270 0.760 0.005
0.520 0.760 0.005
0.770 0.760 0.005
1.000 0.765 0.008
0.020 1.000 0.005
0.270 1.000 0.005
0.520 1.000 0.005
0.770 1.000 0.005
1.000 1.000 0.008
0.020 0.010 0.255
0.270 0.010 0.255
0.520 0.010 0.255
0.770 0.010 0.255
1.000 0.015 0.258
0.020 0.260 0.255
0.270 0.260 0.255
0.520 0.260 0.255
0.770 0.260 0.255
1.000 0.265 0.258
0.020 0.510 0.255
0.270 0.510 0.255
0.520 0.510 0.255
0.770 0.510 0.255
1.000 0.515 0.258
0.020 0.760 0.255
0.270 0.760 0.255
0.520 0.760 0.255
0.770 0.760 0.255
1.000 0.765 0.258
0.020 1.000 0.255
0.270 1.000 0.255
0.520 1.000 0.255
0.770 1.000 0.255
1.000 1.000 0.258
0.020 0.010 0.505
0.270 0.010 0.505
0.520 0.010 0.505
0.770 0.010 0.505
1.000 0.015 0.508
0.020 0.260 0.505
0.270 0.260 0.505
0.520 0.260 0.505
0.770 0.260 0.505
1.000 0.265 0.508
0.020 0.510 0.505
0.270 0.510 0.505
0.520 0.510 0.505
0.770 0.510 0.505
1.000 0.515 0.508
0.020 0.760 0.505
0.270 0.760 0.505
0.520 0.760 0.505
0.770 0.760 0.505
1.000 0.765 0.508
0.020 1.000 0.505
0.270 1.000 0.505
0.520 1.000 0.505
0.770 1.000 0.505
1.000 1.000 0.508
0.020 0.010 0.755
0.270 0.010 0.755
0.520 0.010 0.755
0.770 0.010 0.755
1.000 0.015 0.758
0.020 0.260 0.755
0.270 0.260 0.755
0.520 0.260 0.755
0.770 0.260 0.755
1.000 0.265 0.758
0.020 0.510 0.755
0.270 0.510 0.755
0.520 0.510 0.755
0.770 0.510 0.755
1.000 0.515 0.758
0.020 0.760 0.755
0.270 0.760 0.755
0.520 0.760 0.755
0.770 0.760 0.755
1.000 0.765 0.758
0.020 1.000 0.755
0.270 1.000 0.755
0.520 1.000 0.755
0.770 1.000 0.755
1.000 1.000 0.758
0.025 0.012 1.000
0.275 0.012 1.000
0.525 0.012 1.000
0.775 0.012 1.000
1.000 0.020 1.000
0.025 0.262 1.000
0.275 0.262 1.000
0.525 0.262 1.000
0.775 0.262 1.000
1.000 0.268 1.000
0.025 0.512 1.000
0.275 0.512 1.000
0.525 0.512 1.000
0.775 0.512 1.000
1.000 0.518 1.000
0.025 0.762 1.000
0.275 0.762 1.000
0.525 0.762 1.000
0.775 0.762 1.000
1.000 0.768 1.000
0.025 1.000 1.000
0.275 1.000 1.000
0.525 1.000 1.000
0.775 1.000 1.000
1.000 1.000 1.000
