cfl/corpus-icc_fromcube_fuzzer/all_negative_data_2x2x2.cube
TITLE "Minus Prefix Data"
LUT_3D_SIZE 2
-0.1 -0.1 -0.1
-0.05 -0.1 -0.1
-0.1 -0.05 -0.1
-0.05 -0.05 -0.1
-0.1 -0.1 -0.05
-0.05 -0.1 -0.05
-0.1 -0.05 -0.05
-0.05 -0.05 -0.05
