cfl/corpus-icc_fromcube_fuzzer/cinema_17x17x17.cube
TITLE "Cinema Grade 17x17x17"
# Standard DaVinci Resolve/ACES workflow LUT size
# Skia shader uses 64-slice interpolation; this tests 17-slice
DOMAIN_MIN 0.0 0.0 0.0
DOMAIN_MAX 1.0 1.0 1.0
LUT_3D_SIZE 9
0.010000 0.000000 0.000000
0.141250 0.000000 0.000000
0.272500 0.000000 0.000000
0.403750 0.000000 0.000000
0.535000 0.000000 0.000000
0.666250 0.000000 0.000000
0.797500 0.000000 0.000000
0.928750 0.000000 0.000000
1.000000 0.000000 0.000000
0.010000 0.118750 0.000000
0.141250 0.118750 0.000000
0.272500 0.118750 0.000000
0.403750 0.118750 0.000000
0.535000 0.118750 0.000000
0.666250 0.118750 0.000000
0.797500 0.118750 0.000000
0.928750 0.118750 0.000000
1.000000 0.118750 0.000000
0.010000 0.237500 0.000000
0.141250 0.237500 0.000000
0.272500 0.237500 0.000000
0.403750 0.237500 0.000000
0.535000 0.237500 0.000000
0.666250 0.237500 0.000000
0.797500 0.237500 0.000000
0.928750 0.237500 0.000000
1.000000 0.237500 0.000000
0.010000 0.356250 0.000000
0.141250 0.356250 0.000000
0.272500 0.356250 0.000000
0.403750 0.356250 0.000000
0.535000 0.356250 0.000000
0.666250 0.356250 0.000000
0.797500 0.356250 0.000000
0.928750 0.356250 0.000000
1.000000 0.356250 0.000000
0.010000 0.475000 0.000000
0.141250 0.475000 0.000000
0.272500 0.475000 0.000000
0.403750 0.475000 0.000000
0.535000 0.475000 0.000000
0.666250 0.475000 0.000000
0.797500 0.475000 0.000000
0.928750 0.475000 0.000000
1.000000 0.475000 0.000000
0.010000 0.593750 0.000000
0.141250 0.593750 0.000000
0.272500 0.593750 0.000000
0.403750 0.593750 0.000000
0.535000 0.593750 0.000000
0.666250 0.593750 0.000000
0.797500 0.593750 0.000000
0.928750 0.593750 0.000000
1.000000 0.593750 0.000000
0.010000 0.712500 0.000000
0.141250 0.712500 0.000000
0.272500 0.712500 0.000000
0.403750 0.712500 0.000000
0.535000 0.712500 0.000000
0.666250 0.712500 0.000000
0.797500 0.712500 0.000000
0.928750 0.712500 0.000000
1.000000 0.712500 0.000000
0.010000 0.831250 0.000000
0.141250 0.831250 0.000000
0.272500 0.831250 0.000000
0.403750 0.831250 0.000000
0.535000 0.831250 0.000000
0.666250 0.831250 0.000000
0.797500 0.831250 0.000000
0.928750 0.831250 0.000000
1.000000 0.831250 0.000000
0.010000 0.950000 0.000000
0.141250 0.950000 0.000000
0.272500 0.950000 0.000000
0.403750 0.950000 0.000000
0.535000 0.950000 0.000000
0.666250 0.950000 0.000000
0.797500 0.950000 0.000000
0.928750 0.950000 0.000000
1.000000 0.950000 0.000000
0.010000 0.000000 0.112500
0.141250 0.000000 0.112500
0.272500 0.000000 0.112500
0.403750 0.000000 0.112500
0.535000 0.000000 0.112500
0.666250 0.000000 0.112500
0.797500 0.000000 0.112500
0.928750 0.000000 0.112500
1.000000 0.000000 0.112500
0.010000 0.118750 0.112500
0.141250 0.118750 0.112500
0.272500 0.118750 0.112500
0.403750 0.118750 0.112500
0.535000 0.118750 0.112500
0.666250 0.118750 0.112500
0.797500 0.118750 0.112500
0.928750 0.118750 0.112500
1.000000 0.118750 0.112500
0.010000 0.237500 0.112500
0.141250 0.237500 0.112500
0.272500 0.237500 0.112500
0.403750 0.237500 0.112500
0.535000 0.237500 0.112500
0.666250 0.237500 0.112500
0.797500 0.237500 0.112500
0.928750 0.237500 0.112500
1.000000 0.237500 0.112500
0.010000 0.356250 0.112500
0.141250 0.356250 0.112500
0.272500 0.356250 0.112500
0.403750 0.356250 0.112500
0.535000 0.356250 0.112500
0.666250 0.356250 0.112500
0.797500 0.356250 0.112500
0.928750 0.356250 0.112500
1.000000 0.356250 0.112500
0.010000 0.475000 0.112500
0.141250 0.475000 0.112500
0.272500 0.475000 0.112500
0.403750 0.475000 0.112500
0.535000 0.475000 0.112500
0.666250 0.475000 0.112500
0.797500 0.475000 0.112500
0.928750 0.475000 0.112500
1.000000 0.475000 0.112500
0.010000 0.593750 0.112500
0.141250 0.593750 0.112500
0.272500 0.593750 0.112500
0.403750 0.593750 0.112500
0.535000 0.593750 0.112500
0.666250 0.593750 0.112500
0.797500 0.593750 0.112500
0.928750 0.593750 0.112500
1.000000 0.593750 0.112500
0.010000 0.712500 0.112500
0.141250 0.712500 0.112500
0.272500 0.712500 0.112500
0.403750 0.712500 0.112500
0.535000 0.712500 0.112500
0.666250 0.712500 0.112500
0.797500 0.712500 0.112500
0.928750 0.712500 0.112500
1.000000 0.712500 0.112500
0.010000 0.831250 0.112500
0.141250 0.831250 0.112500
0.272500 0.831250 0.112500
0.403750 0.831250 0.112500
0.535000 0.831250 0.112500
0.666250 0.831250 0.112500
0.797500 0.831250 0.112500
0.928750 0.831250 0.112500
1.000000 0.831250 0.112500
0.010000 0.950000 0.112500
0.141250 0.950000 0.112500
0.272500 0.950000 0.112500
0.403750 0.950000 0.112500
0.535000 0.950000 0.112500
0.666250 0.950000 0.112500
0.797500 0.950000 0.112500
0.928750 0.950000 0.112500
1.000000 0.950000 0.112500
0.010000 0.000000 0.225000
0.141250 0.000000 0.225000
0.272500 0.000000 0.225000
0.403750 0.000000 0.225000
0.535000 0.000000 0.225000
0.666250 0.000000 0.225000
0.797500 0.000000 0.225000
0.928750 0.000000 0.225000
1.000000 0.000000 0.225000
0.010000 0.118750 0.225000
0.141250 0.118750 0.225000
0.272500 0.118750 0.225000
0.403750 0.118750 0.225000
0.535000 0.118750 0.225000
0.666250 0.118750 0.225000
0.797500 0.118750 0.225000
0.928750 0.118750 0.225000
1.000000 0.118750 0.225000
0.010000 0.237500 0.225000
0.141250 0.237500 0.225000
0.272500 0.237500 0.225000
0.403750 0.237500 0.225000
0.535000 0.237500 0.225000
0.666250 0.237500 0.225000
0.797500 0.237500 0.225000
0.928750 0.237500 0.225000
1.000000 0.237500 0.225000
0.010000 0.356250 0.225000
0.141250 0.356250 0.225000
0.272500 0.356250 0.225000
0.403750 0.356250 0.225000
0.535000 0.356250 0.225000
0.666250 0.356250 0.225000
0.797500 0.356250 0.225000
0.928750 0.356250 0.225000
1.000000 0.356250 0.225000
0.010000 0.475000 0.225000
0.141250 0.475000 0.225000
0.272500 0.475000 0.225000
0.403750 0.475000 0.225000
0.535000 0.475000 0.225000
0.666250 0.475000 0.225000
0.797500 0.475000 0.225000
0.928750 0.475000 0.225000
1.000000 0.475000 0.225000
0.010000 0.593750 0.225000
0.141250 0.593750 0.225000
0.272500 0.593750 0.225000
0.403750 0.593750 0.225000
0.535000 0.593750 0.225000
0.666250 0.593750 0.225000
0.797500 0.593750 0.225000
0.928750 0.593750 0.225000
1.000000 0.593750 0.225000
0.010000 0.712500 0.225000
0.141250 0.712500 0.225000
0.272500 0.712500 0.225000
0.403750 0.712500 0.225000
0.535000 0.712500 0.225000
0.666250 0.712500 0.225000
0.797500 0.712500 0.225000
0.928750 0.712500 0.225000
1.000000 0.712500 0.225000
0.010000 0.831250 0.225000
0.141250 0.831250 0.225000
0.272500 0.831250 0.225000
0.403750 0.831250 0.225000
0.535000 0.831250 0.225000
0.666250 0.831250 0.225000
0.797500 0.831250 0.225000
0.928750 0.831250 0.225000
1.000000 0.831250 0.225000
0.010000 0.950000 0.225000
0.141250 0.950000 0.225000
0.272500 0.950000 0.225000
0.403750 0.950000 0.225000
0.535000 0.950000 0.225000
0.666250 0.950000 0.225000
0.797500 0.950000 0.225000
0.928750 0.950000 0.225000
1.000000 0.950000 0.225000
0.010000 0.000000 0.337500
0.141250 0.000000 0.337500
0.272500 0.000000 0.337500
0.403750 0.000000 0.337500
0.535000 0.000000 0.337500
0.666250 0.000000 0.337500
0.797500 0.000000 0.337500
0.928750 0.000000 0.337500
1.000000 0.000000 0.337500
0.010000 0.118750 0.337500
0.141250 0.118750 0.337500
0.272500 0.118750 0.337500
0.403750 0.118750 0.337500
0.535000 0.118750 0.337500
0.666250 0.118750 0.337500
0.797500 0.118750 0.337500
0.928750 0.118750 0.337500
1.000000 0.118750 0.337500
0.010000 0.237500 0.337500
0.141250 0.237500 0.337500
0.272500 0.237500 0.337500
0.403750 0.237500 0.337500
0.535000 0.237500 0.337500
0.666250 0.237500 0.337500
0.797500 0.237500 0.337500
0.928750 0.237500 0.337500
1.000000 0.237500 0.337500
0.010000 0.356250 0.337500
0.141250 0.356250 0.337500
0.272500 0.356250 0.337500
0.403750 0.356250 0.337500
0.535000 0.356250 0.337500
0.666250 0.356250 0.337500
0.797500 0.356250 0.337500
0.928750 0.356250 0.337500
1.000000 0.356250 0.337500
0.010000 0.475000 0.337500
0.141250 0.475000 0.337500
0.272500 0.475000 0.337500
0.403750 0.475000 0.337500
0.535000 0.475000 0.337500
0.666250 0.475000 0.337500
0.797500 0.475000 0.337500
0.928750 0.475000 0.337500
1.000000 0.475000 0.337500
0.010000 0.593750 0.337500
0.141250 0.593750 0.337500
0.272500 0.593750 0.337500
0.403750 0.593750 0.337500
0.535000 0.593750 0.337500
0.666250 0.593750 0.337500
0.797500 0.593750 0.337500
0.928750 0.593750 0.337500
1.000000 0.593750 0.337500
0.010000 0.712500 0.337500
0.141250 0.712500 0.337500
0.272500 0.712500 0.337500
0.403750 0.712500 0.337500
0.535000 0.712500 0.337500
0.666250 0.712500 0.337500
0.797500 0.712500 0.337500
0.928750 0.712500 0.337500
1.000000 0.712500 0.337500
0.010000 0.831250 0.337500
0.141250 0.831250 0.337500
0.272500 0.831250 0.337500
0.403750 0.831250 0.337500
0.535000 0.831250 0.337500
0.666250 0.831250 0.337500
0.797500 0.831250 0.337500
0.928750 0.831250 0.337500
1.000000 0.831250 0.337500
0.010000 0.950000 0.337500
0.141250 0.950000 0.337500
0.272500 0.950000 0.337500
0.403750 0.950000 0.337500
0.535000 0.950000 0.337500
0.666250 0.950000 0.337500
0.797500 0.950000 0.337500
0.928750 0.950000 0.337500
1.000000 0.950000 0.337500
0.010000 0.000000 0.450000
0.141250 0.000000 0.450000
0.272500 0.000000 0.450000
0.403750 0.000000 0.450000
0.535000 0.000000 0.450000
0.666250 0.000000 0.450000
0.797500 0.000000 0.450000
0.928750 0.000000 0.450000
1.000000 0.000000 0.450000
0.010000 0.118750 0.450000
0.141250 0.118750 0.450000
0.272500 0.118750 0.450000
0.403750 0.118750 0.450000
0.535000 0.118750 0.450000
0.666250 0.118750 0.450000
0.797500 0.118750 0.450000
0.928750 0.118750 0.450000
1.000000 0.118750 0.450000
0.010000 0.237500 0.450000
0.141250 0.237500 0.450000
0.272500 0.237500 0.450000
0.403750 0.237500 0.450000
0.535000 0.237500 0.450000
0.666250 0.237500 0.450000
0.797500 0.237500 0.450000
0.928750 0.237500 0.450000
1.000000 0.237500 0.450000
0.010000 0.356250 0.450000
0.141250 0.356250 0.450000
0.272500 0.356250 0.450000
0.403750 0.356250 0.450000
0.535000 0.356250 0.450000
0.666250 0.356250 0.450000
0.797500 0.356250 0.450000
0.928750 0.356250 0.450000
1.000000 0.356250 0.450000
0.010000 0.475000 0.450000
0.141250 0.475000 0.450000
0.272500 0.475000 0.450000
0.403750 0.475000 0.450000
0.535000 0.475000 0.450000
0.666250 0.475000 0.450000
0.797500 0.475000 0.450000
0.928750 0.475000 0.450000
1.000000 0.475000 0.450000
0.010000 0.593750 0.450000
0.141250 0.593750 0.450000
0.272500 0.593750 0.450000
0.403750 0.593750 0.450000
0.535000 0.593750 0.450000
0.666250 0.593750 0.450000
0.797500 0.593750 0.450000
0.928750 0.593750 0.450000
1.000000 0.593750 0.450000
0.010000 0.712500 0.450000
0.141250 0.712500 0.450000
0.272500 0.712500 0.450000
0.403750 0.712500 0.450000
0.535000 0.712500 0.450000
0.666250 0.712500 0.450000
0.797500 0.712500 0.450000
0.928750 0.712500 0.450000
1.000000 0.712500 0.450000
0.010000 0.831250 0.450000
0.141250 0.831250 0.450000
0.272500 0.831250 0.450000
0.403750 0.831250 0.450000
0.535000 0.831250 0.450000
0.666250 0.831250 0.450000
0.797500 0.831250 0.450000
0.928750 0.831250 0.450000
1.000000 0.831250 0.450000
0.010000 0.950000 0.450000
0.141250 0.950000 0.450000
0.272500 0.950000 0.450000
0.403750 0.950000 0.450000
0.535000 0.950000 0.450000
0.666250 0.950000 0.450000
0.797500 0.950000 0.450000
0.928750 0.950000 0.450000
1.000000 0.950000 0.450000
0.010000 0.000000 0.562500
0.141250 0.000000 0.562500
0.272500 0.000000 0.562500
0.403750 0.000000 0.562500
0.535000 0.000000 0.562500
0.666250 0.000000 0.562500
0.797500 0.000000 0.562500
0.928750 0.000000 0.562500
1.000000 0.000000 0.562500
0.010000 0.118750 0.562500
0.141250 0.118750 0.562500
0.272500 0.118750 0.562500
0.403750 0.118750 0.562500
0.535000 0.118750 0.562500
0.666250 0.118750 0.562500
0.797500 0.118750 0.562500
0.928750 0.118750 0.562500
1.000000 0.118750 0.562500
0.010000 0.237500 0.562500
0.141250 0.237500 0.562500
0.272500 0.237500 0.562500
0.403750 0.237500 0.562500
0.535000 0.237500 0.562500
0.666250 0.237500 0.562500
0.797500 0.237500 0.562500
0.928750 0.237500 0.562500
1.000000 0.237500 0.562500
0.010000 0.356250 0.562500
0.141250 0.356250 0.562500
0.272500 0.356250 0.562500
0.403750 0.356250 0.562500
0.535000 0.356250 0.562500
0.666250 0.356250 0.562500
0.797500 0.356250 0.562500
0.928750 0.356250 0.562500
1.000000 0.356250 0.562500
0.010000 0.475000 0.562500
0.141250 0.475000 0.562500
0.272500 0.475000 0.562500
0.403750 0.475000 0.562500
0.535000 0.475000 0.562500
0.666250 0.475000 0.562500
0.797500 0.475000 0.562500
0.928750 0.475000 0.562500
1.000000 0.475000 0.562500
0.010000 0.593750 0.562500
0.141250 0.593750 0.562500
0.272500 0.593750 0.562500
0.403750 0.593750 0.562500
0.535000 0.593750 0.562500
0.666250 0.593750 0.562500
0.797500 0.593750 0.562500
0.928750 0.593750 0.562500
1.000000 0.593750 0.562500
0.010000 0.712500 0.562500
0.141250 0.712500 0.562500
0.272500 0.712500 0.562500
0.403750 0.712500 0.562500
0.535000 0.712500 0.562500
0.666250 0.712500 0.562500
0.797500 0.712500 0.562500
0.928750 0.712500 0.562500
1.000000 0.712500 0.562500
0.010000 0.831250 0.562500
0.141250 0.831250 0.562500
0.272500 0.831250 0.562500
0.403750 0.831250 0.562500
0.535000 0.831250 0.562500
0.666250 0.831250 0.562500
0.797500 0.831250 0.562500
0.928750 0.831250 0.562500
1.000000 0.831250 0.562500
0.010000 0.950000 0.562500
0.141250 0.950000 0.562500
0.272500 0.950000 0.562500
0.403750 0.950000 0.562500
0.535000 0.950000 0.562500
0.666250 0.950000 0.562500
0.797500 0.950000 0.562500
0.928750 0.950000 0.562500
1.000000 0.950000 0.562500
0.010000 0.000000 0.675000
0.141250 0.000000 0.675000
0.272500 0.000000 0.675000
0.403750 0.000000 0.675000
0.535000 0.000000 0.675000
0.666250 0.000000 0.675000
0.797500 0.000000 0.675000
0.928750 0.000000 0.675000
1.000000 0.000000 0.675000
0.010000 0.118750 0.675000
0.141250 0.118750 0.675000
0.272500 0.118750 0.675000
0.403750 0.118750 0.675000
0.535000 0.118750 0.675000
0.666250 0.118750 0.675000
0.797500 0.118750 0.675000
0.928750 0.118750 0.675000
1.000000 0.118750 0.675000
0.010000 0.237500 0.675000
0.141250 0.237500 0.675000
0.272500 0.237500 0.675000
0.403750 0.237500 0.675000
0.535000 0.237500 0.675000
0.666250 0.237500 0.675000
0.797500 0.237500 0.675000
0.928750 0.237500 0.675000
1.000000 0.237500 0.675000
0.010000 0.356250 0.675000
0.141250 0.356250 0.675000
0.272500 0.356250 0.675000
0.403750 0.356250 0.675000
0.535000 0.356250 0.675000
0.666250 0.356250 0.675000
0.797500 0.356250 0.675000
0.928750 0.356250 0.675000
1.000000 0.356250 0.675000
0.010000 0.475000 0.675000
0.141250 0.475000 0.675000
0.272500 0.475000 0.675000
0.403750 0.475000 0.675000
0.535000 0.475000 0.675000
0.666250 0.475000 0.675000
0.797500 0.475000 0.675000
0.928750 0.475000 0.675000
1.000000 0.475000 0.675000
0.010000 0.593750 0.675000
0.141250 0.593750 0.675000
0.272500 0.593750 0.675000
0.403750 0.593750 0.675000
0.535000 0.593750 0.675000
0.666250 0.593750 0.675000
0.797500 0.593750 0.675000
0.928750 0.593750 0.675000
1.000000 0.593750 0.675000
0.010000 0.712500 0.675000
0.141250 0.712500 0.675000
0.272500 0.712500 0.675000
0.403750 0.712500 0.675000
0.535000 0.712500 0.675000
0.666250 0.712500 0.675000
0.797500 0.712500 0.675000
0.928750 0.712500 0.675000
1.000000 0.712500 0.675000
0.010000 0.831250 0.675000
0.141250 0.831250 0.675000
0.272500 0.831250 0.675000
0.403750 0.831250 0.675000
0.535000 0.831250 0.675000
0.666250 0.831250 0.675000
0.797500 0.831250 0.675000
0.928750 0.831250 0.675000
1.000000 0.831250 0.675000
0.010000 0.950000 0.675000
0.141250 0.950000 0.675000
0.272500 0.950000 0.675000
0.403750 0.950000 0.675000
0.535000 0.950000 0.675000
0.666250 0.950000 0.675000
0.797500 0.950000 0.675000
0.928750 0.950000 0.675000
1.000000 0.950000 0.675000
0.010000 0.000000 0.787500
0.141250 0.000000 0.787500
0.272500 0.000000 0.787500
0.403750 0.000000 0.787500
0.535000 0.000000 0.787500
0.666250 0.000000 0.787500
0.797500 0.000000 0.787500
0.928750 0.000000 0.787500
1.000000 0.000000 0.787500
0.010000 0.118750 0.787500
0.141250 0.118750 0.787500
0.272500 0.118750 0.787500
0.403750 0.118750 0.787500
0.535000 0.118750 0.787500
0.666250 0.118750 0.787500
0.797500 0.118750 0.787500
0.928750 0.118750 0.787500
1.000000 0.118750 0.787500
0.010000 0.237500 0.787500
0.141250 0.237500 0.787500
0.272500 0.237500 0.787500
0.403750 0.237500 0.787500
0.535000 0.237500 0.787500
0.666250 0.237500 0.787500
0.797500 0.237500 0.787500
0.928750 0.237500 0.787500
1.000000 0.237500 0.787500
0.010000 0.356250 0.787500
0.141250 0.356250 0.787500
0.272500 0.356250 0.787500
0.403750 0.356250 0.787500
0.535000 0.356250 0.787500
0.666250 0.356250 0.787500
0.797500 0.356250 0.787500
0.928750 0.356250 0.787500
1.000000 0.356250 0.787500
0.010000 0.475000 0.787500
0.141250 0.475000 0.787500
0.272500 0.475000 0.787500
0.403750 0.475000 0.787500
0.535000 0.475000 0.787500
0.666250 0.475000 0.787500
0.797500 0.475000 0.787500
0.928750 0.475000 0.787500
1.000000 0.475000 0.787500
0.010000 0.593750 0.787500
0.141250 0.593750 0.787500
0.272500 0.593750 0.787500
0.403750 0.593750 0.787500
0.535000 0.593750 0.787500
0.666250 0.593750 0.787500
0.797500 0.593750 0.787500
0.928750 0.593750 0.787500
1.000000 0.593750 0.787500
0.010000 0.712500 0.787500
0.141250 0.712500 0.787500
0.272500 0.712500 0.787500
0.403750 0.712500 0.787500
0.535000 0.712500 0.787500
0.666250 0.712500 0.787500
0.797500 0.712500 0.787500
0.928750 0.712500 0.787500
1.000000 0.712500 0.787500
0.010000 0.831250 0.787500
0.141250 0.831250 0.787500
0.272500 0.831250 0.787500
0.403750 0.831250 0.787500
0.535000 0.831250 0.787500
0.666250 0.831250 0.787500
0.797500 0.831250 0.787500
0.928750 0.831250 0.787500
1.000000 0.831250 0.787500
0.010000 0.950000 0.787500
0.141250 0.950000 0.787500
0.272500 0.950000 0.787500
0.403750 0.950000 0.787500
0.535000 0.950000 0.787500
0.666250 0.950000 0.787500
0.797500 0.950000 0.787500
0.928750 0.950000 0.787500
1.000000 0.950000 0.787500
0.010000 0.000000 0.900000
0.141250 0.000000 0.900000
0.272500 0.000000 0.900000
0.403750 0.000000 0.900000
0.535000 0.000000 0.900000
0.666250 0.000000 0.900000
0.797500 0.000000 0.900000
0.928750 0.000000 0.900000
1.000000 0.000000 0.900000
0.010000 0.118750 0.900000
0.141250 0.118750 0.900000
0.272500 0.118750 0.900000
0.403750 0.118750 0.900000
0.535000 0.118750 0.900000
0.666250 0.118750 0.900000
0.797500 0.118750 0.900000
0.928750 0.118750 0.900000
1.000000 0.118750 0.900000
0.010000 0.237500 0.900000
0.141250 0.237500 0.900000
0.272500 0.237500 0.900000
0.403750 0.237500 0.900000
0.535000 0.237500 0.900000
0.666250 0.237500 0.900000
0.797500 0.237500 0.900000
0.928750 0.237500 0.900000
1.000000 0.237500 0.900000
0.010000 0.356250 0.900000
0.141250 0.356250 0.900000
0.272500 0.356250 0.900000
0.403750 0.356250 0.900000
0.535000 0.356250 0.900000
0.666250 0.356250 0.900000
0.797500 0.356250 0.900000
0.928750 0.356250 0.900000
1.000000 0.356250 0.900000
0.010000 0.475000 0.900000
0.141250 0.475000 0.900000
0.272500 0.475000 0.900000
0.403750 0.475000 0.900000
0.535000 0.475000 0.900000
0.666250 0.475000 0.900000
0.797500 0.475000 0.900000
0.928750 0.475000 0.900000
1.000000 0.475000 0.900000
0.010000 0.593750 0.900000
0.141250 0.593750 0.900000
0.272500 0.593750 0.900000
0.403750 0.593750 0.900000
0.535000 0.593750 0.900000
0.666250 0.593750 0.900000
0.797500 0.593750 0.900000
0.928750 0.593750 0.900000
1.000000 0.593750 0.900000
0.010000 0.712500 0.900000
0.141250 0.712500 0.900000
0.272500 0.712500 0.900000
0.403750 0.712500 0.900000
0.535000 0.712500 0.900000
0.666250 0.712500 0.900000
0.797500 0.712500 0.900000
0.928750 0.712500 0.900000
1.000000 0.712500 0.900000
0.010000 0.831250 0.900000
0.141250 0.831250 0.900000
0.272500 0.831250 0.900000
0.403750 0.831250 0.900000
0.535000 0.831250 0.900000
0.666250 0.831250 0.900000
0.797500 0.831250 0.900000
0.928750 0.831250 0.900000
1.000000 0.831250 0.900000
0.010000 0.950000 0.900000
0.141250 0.950000 0.900000
0.272500 0.950000 0.900000
0.403750 0.950000 0.900000
0.535000 0.950000 0.900000
0.666250 0.950000 0.900000
0.797500 0.950000 0.900000
0.928750 0.950000 0.900000
1.000000 0.950000 0.900000
