cfl/corpus-icc_fromcube_fuzzer/cinema_17x17x17.cube
TITLE "Cinema Grade 17x17x17"
# Standard DaVinci Resolve/ACES workflow LUT size
# Skia shader uses 64-slice interpolation; this tests 17-slice
DOMAIN_MIN 0.0 0.0 0.0
DOMAIN_MAX 1.0 1.0 1.0
LUT_3D_SIZE 17
0.010000 0.000000 0.000000
0.075625 0.000000 0.000000
0.141250 0.000000 0.000000
0.206875 0.000000 0.000000
0.272500 0.000000 0.000000
0.338125 0.000000 0.000000
0.403750 0.000000 0.000000
0.469375 0.000000 0.000000
0.535000 0.000000 0.000000
0.600625 0.000000 0.000000
0.666250 0.000000 0.000000
0.731875 0.000000 0.000000
0.797500 0.000000 0.000000
0.863125 0.000000 0.000000
0.928750 0.000000 0.000000
0.994375 0.000000 0.000000
1.000000 0.000000 0.000000
0.010000 0.059375 0.000000
0.075625 0.059375 0.000000
0.141250 0.059375 0.000000
0.206875 0.059375 0.000000
0.272500 0.059375 0.000000
0.338125 0.059375 0.000000
0.403750 0.059375 0.000000
0.469375 0.059375 0.000000
0.535000 0.059375 0.000000
0.600625 0.059375 0.000000
0.666250 0.059375 0.000000
0.731875 0.059375 0.000000
0.797500 0.059375 0.000000
0.863125 0.059375 0.000000
0.928750 0.059375 0.000000
0.994375 0.059375 0.000000
1.000000 0.059375 0.000000
0.010000 0.118750 0.000000
0.075625 0.118750 0.000000
0.141250 0.118750 0.000000
0.206875 0.118750 0.000000
0.272500 0.118750 0.000000
0.338125 0.118750 0.000000
0.403750 0.118750 0.000000
0.469375 0.118750 0.000000
0.535000 0.118750 0.000000
0.600625 0.118750 0.000000
0.666250 0.118750 0.000000
0.731875 0.118750 0.000000
0.797500 0.118750 0.000000
0.863125 0.118750 0.000000
0.928750 0.118750 0.000000
0.994375 0.118750 0.000000
1.000000 0.118750 0.000000
0.010000 0.178125 0.000000
0.075625 0.178125 0.000000
0.141250 0.178125 0.000000
0.206875 0.178125 0.000000
0.272500 0.178125 0.000000
0.338125 0.178125 0.000000
0.403750 0.178125 0.000000
0.469375 0.178125 0.000000
0.535000 0.178125 0.000000
0.600625 0.178125 0.000000
0.666250 0.178125 0.000000
0.731875 0.178125 0.000000
0.797500 0.178125 0.000000
0.863125 0.178125 0.000000
0.928750 0.178125 0.000000
0.994375 0.178125 0.000000
1.000000 0.178125 0.000000
0.010000 0.237500 0.000000
0.075625 0.237500 0.000000
0.141250 0.237500 0.000000
0.206875 0.237500 0.000000
0.272500 0.237500 0.000000
0.338125 0.237500 0.000000
0.403750 0.237500 0.000000
0.469375 0.237500 0.000000
0.535000 0.237500 0.000000
0.600625 0.237500 0.000000
0.666250 0.237500 0.000000
0.731875 0.237500 0.000000
0.797500 0.237500 0.000000
0.863125 0.237500 0.000000
0.928750 0.237500 0.000000
0.994375 0.237500 0.000000
1.000000 0.237500 0.000000
0.010000 0.296875 0.000000
0.075625 0.296875 0.000000
0.141250 0.296875 0.000000
0.206875 0.296875 0.000000
0.272500 0.296875 0.000000
0.338125 0.296875 0.000000
0.403750 0.296875 0.000000
0.469375 0.296875 0.000000
0.535000 0.296875 0.000000
0.600625 0.296875 0.000000
0.666250 0.296875 0.000000
0.731875 0.296875 0.000000
0.797500 0.296875 0.000000
0.863125 0.296875 0.000000
0.928750 0.296875 0.000000
0.994375 0.296875 0.000000
1.000000 0.296875 0.000000
0.010000 0.356250 0.000000
0.075625 0.356250 0.000000
0.141250 0.356250 0.000000
0.206875 0.356250 0.000000
0.272500 0.356250 0.000000
0.338125 0.356250 0.000000
0.403750 0.356250 0.000000
0.469375 0.356250 0.000000
0.535000 0.356250 0.000000
0.600625 0.356250 0.000000
0.666250 0.356250 0.000000
0.731875 0.356250 0.000000
0.797500 0.356250 0.000000
0.863125 0.356250 0.000000
0.928750 0.356250 0.000000
0.994375 0.356250 0.000000
1.000000 0.356250 0.000000
0.010000 0.415625 0.000000
0.075625 0.415625 0.000000
0.141250 0.415625 0.000000
0.206875 0.415625 0.000000
0.272500 0.415625 0.000000
0.338125 0.415625 0.000000
0.403750 0.415625 0.000000
0.469375 0.415625 0.000000
0.535000 0.415625 0.000000
0.600625 0.415625 0.000000
0.666250 0.415625 0.000000
0.731875 0.415625 0.000000
0.797500 0.415625 0.000000
0.863125 0.415625 0.000000
0.928750 0.415625 0.000000
0.994375 0.415625 0.000000
1.000000 0.415625 0.000000
0.010000 0.475000 0.000000
0.075625 0.475000 0.000000
0.141250 0.475000 0.000000
0.206875 0.475000 0.000000
0.272500 0.475000 0.000000
0.338125 0.475000 0.000000
0.403750 0.475000 0.000000
0.469375 0.475000 0.000000
0.535000 0.475000 0.000000
0.600625 0.475000 0.000000
0.666250 0.475000 0.000000
0.731875 0.475000 0.000000
0.797500 0.475000 0.000000
0.863125 0.475000 0.000000
0.928750 0.475000 0.000000
0.994375 0.475000 0.000000
1.000000 0.475000 0.000000
0.010000 0.534375 0.000000
0.075625 0.534375 0.000000
0.141250 0.534375 0.000000
0.206875 0.534375 0.000000
0.272500 0.534375 0.000000
0.338125 0.534375 0.000000
0.403750 0.534375 0.000000
0.469375 0.534375 0.000000
0.535000 0.534375 0.000000
0.600625 0.534375 0.000000
0.666250 0.534375 0.000000
0.731875 0.534375 0.000000
0.797500 0.534375 0.000000
0.863125 0.534375 0.000000
0.928750 0.534375 0.000000
0.994375 0.534375 0.000000
1.000000 0.534375 0.000000
0.010000 0.593750 0.000000
0.075625 0.593750 0.000000
0.141250 0.593750 0.000000
0.206875 0.593750 0.000000
0.272500 0.593750 0.000000
0.338125 0.593750 0.000000
0.403750 0.593750 0.000000
0.469375 0.593750 0.000000
0.535000 0.593750 0.000000
0.600625 0.593750 0.000000
0.666250 0.593750 0.000000
0.731875 0.593750 0.000000
0.797500 0.593750 0.000000
0.863125 0.593750 0.000000
0.928750 0.593750 0.000000
0.994375 0.593750 0.000000
1.000000 0.593750 0.000000
0.010000 0.653125 0.000000
0.075625 0.653125 0.000000
0.141250 0.653125 0.000000
0.206875 0.653125 0.000000
0.272500 0.653125 0.000000
0.338125 0.653125 0.000000
0.403750 0.653125 0.000000
0.469375 0.653125 0.000000
0.535000 0.653125 0.000000
0.600625 0.653125 0.000000
0.666250 0.653125 0.000000
0.731875 0.653125 0.000000
0.797500 0.653125 0.000000
0.863125 0.653125 0.000000
0.928750 0.653125 0.000000
0.994375 0.653125 0.000000
1.000000 0.653125 0.000000
0.010000 0.712500 0.000000
0.075625 0.712500 0.000000
0.141250 0.712500 0.000000
0.206875 0.712500 0.000000
0.272500 0.712500 0.000000
0.338125 0.712500 0.000000
0.403750 0.712500 0.000000
0.469375 0.712500 0.000000
0.535000 0.712500 0.000000
0.600625 0.712500 0.000000
0.666250 0.712500 0.000000
0.731875 0.712500 0.000000
0.797500 0.712500 0.000000
0.863125 0.712500 0.000000
0.928750 0.712500 0.000000
0.994375 0.712500 0.000000
1.000000 0.712500 0.000000
0.010000 0.771875 0.000000
0.075625 0.771875 0.000000
0.141250 0.771875 0.000000
0.206875 0.771875 0.000000
0.272500 0.771875 0.000000
0.338125 0.771875 0.000000
0.403750 0.771875 0.000000
0.469375 0.771875 0.000000
0.535000 0.771875 0.000000
0.600625 0.771875 0.000000
0.666250 0.771875 0.000000
0.731875 0.771875 0.000000
0.797500 0.771875 0.000000
0.863125 0.771875 0.000000
0.928750 0.771875 0.000000
0.994375 0.771875 0.000000
1.000000 0.771875 0.000000
0.010000 0.831250 0.000000
0.075625 0.831250 0.000000
0.141250 0.831250 0.000000
0.206875 0.831250 0.000000
0.272500 0.831250 0.000000
0.338125 0.831250 0.000000
0.403750 0.831250 0.000000
0.469375 0.831250 0.000000
0.535000 0.831250 0.000000
0.600625 0.831250 0.000000
0.666250 0.831250 0.000000
0.731875 0.831250 0.000000
0.797500 0.831250 0.000000
0.863125 0.831250 0.000000
0.928750 0.831250 0.000000
0.994375 0.831250 0.000000
1.000000 0.831250 0.000000
0.010000 0.890625 0.000000
0.075625 0.890625 0.000000
0.141250 0.890625 0.000000
0.206875 0.890625 0.000000
0.272500 0.890625 0.000000
0.338125 0.890625 0.000000
0.403750 0.890625 0.000000
0.469375 0.890625 0.000000
0.535000 0.890625 0.000000
0.600625 0.890625 0.000000
0.666250 0.890625 0.000000
0.731875 0.890625 0.000000
0.797500 0.890625 0.000000
0.863125 0.890625 0.000000
0.928750 0.890625 0.000000
0.994375 0.890625 0.000000
1.000000 0.890625 0.000000
0.010000 0.950000 0.000000
0.075625 0.950000 0.000000
0.141250 0.950000 0.000000
0.206875 0.950000 0.000000
0.272500 0.950000 0.000000
0.338125 0.950000 0.000000
0.403750 0.950000 0.000000
0.469375 0.950000 0.000000
0.535000 0.950000 0.000000
0.600625 0.950000 0.000000
0.666250 0.950000 0.000000
0.731875 0.950000 0.000000
0.797500 0.950000 0.000000
0.863125 0.950000 0.000000
0.928750 0.950000 0.000000
0.994375 0.950000 0.000000
1.000000 0.950000 0.000000
0.010000 0.000000 0.056250
0.075625 0.000000 0.056250
0.141250 0.000000 0.056250
0.206875 0.000000 0.056250
0.272500 0.000000 0.056250
0.338125 0.000000 0.056250
0.403750 0.000000 0.056250
0.469375 0.000000 0.056250
0.535000 0.000000 0.056250
0.600625 0.000000 0.056250
0.666250 0.000000 0.056250
0.731875 0.000000 0.056250
0.797500 0.000000 0.056250
0.863125 0.000000 0.056250
0.928750 0.000000 0.056250
0.994375 0.000000 0.056250
1.000000 0.000000 0.056250
0.010000 0.059375 0.056250
0.075625 0.059375 0.056250
0.141250 0.059375 0.056250
0.206875 0.059375 0.056250
0.272500 0.059375 0.056250
0.338125 0.059375 0.056250
0.403750 0.059375 0.056250
0.469375 0.059375 0.056250
0.535000 0.059375 0.056250
0.600625 0.059375 0.056250
0.666250 0.059375 0.056250
0.731875 0.059375 0.056250
0.797500 0.059375 0.056250
0.863125 0.059375 0.056250
0.928750 0.059375 0.056250
0.994375 0.059375 0.056250
1.000000 0.059375 0.056250
0.010000 0.118750 0.056250
0.075625 0.118750 0.056250
0.141250 0.118750 0.056250
0.206875 0.118750 0.056250
0.272500 0.118750 0.056250
0.338125 0.118750 0.056250
0.403750 0.118750 0.056250
0.469375 0.118750 0.056250
0.535000 0.118750 0.056250
0.600625 0.118750 0.056250
0.666250 0.118750 0.056250
0.731875 0.118750 0.056250
0.797500 0.118750 0.056250
0.863125 0.118750 0.056250
0.928750 0.118750 0.056250
0.994375 0.118750 0.056250
1.000000 0.118750 0.056250
0.010000 0.178125 0.056250
0.075625 0.178125 0.056250
0.141250 0.178125 0.056250
0.206875 0.178125 0.056250
0.272500 0.178125 0.056250
0.338125 0.178125 0.056250
0.403750 0.178125 0.056250
0.469375 0.178125 0.056250
0.535000 0.178125 0.056250
0.600625 0.178125 0.056250
0.666250 0.178125 0.056250
0.731875 0.178125 0.056250
0.797500 0.178125 0.056250
0.863125 0.178125 0.056250
0.928750 0.178125 0.056250
0.994375 0.178125 0.056250
1.000000 0.178125 0.056250
0.010000 0.237500 0.056250
0.075625 0.237500 0.056250
0.141250 0.237500 0.056250
0.206875 0.237500 0.056250
0.272500 0.237500 0.056250
0.338125 0.237500 0.056250
0.403750 0.237500 0.056250
0.469375 0.237500 0.056250
0.535000 0.237500 0.056250
0.600625 0.237500 0.056250
0.666250 0.237500 0.056250
0.731875 0.237500 0.056250
0.797500 0.237500 0.056250
0.863125 0.237500 0.056250
0.928750 0.237500 0.056250
0.994375 0.237500 0.056250
1.000000 0.237500 0.056250
0.010000 0.296875 0.056250
0.075625 0.296875 0.056250
0.141250 0.296875 0.056250
0.206875 0.296875 0.056250
0.272500 0.296875 0.056250
0.338125 0.296875 0.056250
0.403750 0.296875 0.056250
0.469375 0.296875 0.056250
0.535000 0.296875 0.056250
0.600625 0.296875 0.056250
0.666250 0.296875 0.056250
0.731875 0.296875 0.056250
0.797500 0.296875 0.056250
0.863125 0.296875 0.056250
0.928750 0.296875 0.056250
0.994375 0.296875 0.056250
1.000000 0.296875 0.056250
0.010000 0.356250 0.056250
0.075625 0.356250 0.056250
0.141250 0.356250 0.056250
0.206875 0.356250 0.056250
0.272500 0.356250 0.056250
0.338125 0.356250 0.056250
0.403750 0.356250 0.056250
0.469375 0.356250 0.056250
0.535000 0.356250 0.056250
0.600625 0.356250 0.056250
0.666250 0.356250 0.056250
0.731875 0.356250 0.056250
0.797500 0.356250 0.056250
0.863125 0.356250 0.056250
0.928750 0.356250 0.056250
0.994375 0.356250 0.056250
1.000000 0.356250 0.056250
0.010000 0.415625 0.056250
0.075625 0.415625 0.056250
0.141250 0.415625 0.056250
0.206875 0.415625 0.056250
0.272500 0.415625 0.056250
0.338125 0.415625 0.056250
0.403750 0.415625 0.056250
0.469375 0.415625 0.056250
0.535000 0.415625 0.056250
0.600625 0.415625 0.056250
0.666250 0.415625 0.056250
0.731875 0.415625 0.056250
0.797500 0.415625 0.056250
0.863125 0.415625 0.056250
0.928750 0.415625 0.056250
0.994375 0.415625 0.056250
1.000000 0.415625 0.056250
0.010000 0.475000 0.056250
0.075625 0.475000 0.056250
0.141250 0.475000 0.056250
0.206875 0.475000 0.056250
0.272500 0.475000 0.056250
0.338125 0.475000 0.056250
0.403750 0.475000 0.056250
0.469375 0.475000 0.056250
0.535000 0.475000 0.056250
0.600625 0.475000 0.056250
0.666250 0.475000 0.056250
0.731875 0.475000 0.056250
0.797500 0.475000 0.056250
0.863125 0.475000 0.056250
0.928750 0.475000 0.056250
0.994375 0.475000 0.056250
1.000000 0.475000 0.056250
0.010000 0.534375 0.056250
0.075625 0.534375 0.056250
0.141250 0.534375 0.056250
0.206875 0.534375 0.056250
0.272500 0.534375 0.056250
0.338125 0.534375 0.056250
0.403750 0.534375 0.056250
0.469375 0.534375 0.056250
0.535000 0.534375 0.056250
0.600625 0.534375 0.056250
0.666250 0.534375 0.056250
0.731875 0.534375 0.056250
0.797500 0.534375 0.056250
0.863125 0.534375 0.056250
0.928750 0.534375 0.056250
0.994375 0.534375 0.056250
1.000000 0.534375 0.056250
0.010000 0.593750 0.056250
0.075625 0.593750 0.056250
0.141250 0.593750 0.056250
0.206875 0.593750 0.056250
0.272500 0.593750 0.056250
0.338125 0.593750 0.056250
0.403750 0.593750 0.056250
0.469375 0.593750 0.056250
0.535000 0.593750 0.056250
0.600625 0.593750 0.056250
0.666250 0.593750 0.056250
0.731875 0.593750 0.056250
0.797500 0.593750 0.056250
0.863125 0.593750 0.056250
0.928750 0.593750 0.056250
0.994375 0.593750 0.056250
1.000000 0.593750 0.056250
0.010000 0.653125 0.056250
0.075625 0.653125 0.056250
0.141250 0.653125 0.056250
0.206875 0.653125 0.056250
0.272500 0.653125 0.056250
0.338125 0.653125 0.056250
0.403750 0.653125 0.056250
0.469375 0.653125 0.056250
0.535000 0.653125 0.056250
0.600625 0.653125 0.056250
0.666250 0.653125 0.056250
0.731875 0.653125 0.056250
0.797500 0.653125 0.056250
0.863125 0.653125 0.056250
0.928750 0.653125 0.056250
0.994375 0.653125 0.056250
1.000000 0.653125 0.056250
0.010000 0.712500 0.056250
0.075625 0.712500 0.056250
0.141250 0.712500 0.056250
0.206875 0.712500 0.056250
0.272500 0.712500 0.056250
0.338125 0.712500 0.056250
0.403750 0.712500 0.056250
0.469375 0.712500 0.056250
0.535000 0.712500 0.056250
0.600625 0.712500 0.056250
0.666250 0.712500 0.056250
0.731875 0.712500 0.056250
0.797500 0.712500 0.056250
0.863125 0.712500 0.056250
0.928750 0.712500 0.056250
0.994375 0.712500 0.056250
1.000000 0.712500 0.056250
0.010000 0.771875 0.056250
0.075625 0.771875 0.056250
0.141250 0.771875 0.056250
0.206875 0.771875 0.056250
0.272500 0.771875 0.056250
0.338125 0.771875 0.056250
0.403750 0.771875 0.056250
0.469375 0.771875 0.056250
0.535000 0.771875 0.056250
0.600625 0.771875 0.056250
0.666250 0.771875 0.056250
0.731875 0.771875 0.056250
0.797500 0.771875 0.056250
0.863125 0.771875 0.056250
0.928750 0.771875 0.056250
0.994375 0.771875 0.056250
1.000000 0.771875 0.056250
0.010000 0.831250 0.056250
0.075625 0.831250 0.056250
0.141250 0.831250 0.056250
0.206875 0.831250 0.056250
0.272500 0.831250 0.056250
0.338125 0.831250 0.056250
0.403750 0.831250 0.056250
0.469375 0.831250 0.056250
0.535000 0.831250 0.056250
0.600625 0.831250 0.056250
0.666250 0.831250 0.056250
0.731875 0.831250 0.056250
0.797500 0.831250 0.056250
0.863125 0.831250 0.056250
0.928750 0.831250 0.056250
0.994375 0.831250 0.056250
1.000000 0.831250 0.056250
0.010000 0.890625 0.056250
0.075625 0.890625 0.056250
0.141250 0.890625 0.056250
0.206875 0.890625 0.056250
0.272500 0.890625 0.056250
0.338125 0.890625 0.056250
0.403750 0.890625 0.056250
0.469375 0.890625 0.056250
0.535000 0.890625 0.056250
0.600625 0.890625 0.056250
0.666250 0.890625 0.056250
0.731875 0.890625 0.056250
0.797500 0.890625 0.056250
0.863125 0.890625 0.056250
0.928750 0.890625 0.056250
0.994375 0.890625 0.056250
1.000000 0.890625 0.056250
0.010000 0.950000 0.056250
0.075625 0.950000 0.056250
0.141250 0.950000 0.056250
0.206875 0.950000 0.056250
0.272500 0.950000 0.056250
0.338125 0.950000 0.056250
0.403750 0.950000 0.056250
0.469375 0.950000 0.056250
0.535000 0.950000 0.056250
0.600625 0.950000 0.056250
0.666250 0.950000 0.056250
0.731875 0.950000 0.056250
0.797500 0.950000 0.056250
0.863125 0.950000 0.056250
0.928750 0.950000 0.056250
0.994375 0.950000 0.056250
1.000000 0.950000 0.056250
0.010000 0.000000 0.112500
0.075625 0.000000 0.112500
0.141250 0.000000 0.112500
0.206875 0.000000 0.112500
0.272500 0.000000 0.112500
0.338125 0.000000 0.112500
0.403750 0.000000 0.112500
0.469375 0.000000 0.112500
0.535000 0.000000 0.112500
0.600625 0.000000 0.112500
0.666250 0.000000 0.112500
0.731875 0.000000 0.112500
0.797500 0.000000 0.112500
0.863125 0.000000 0.112500
0.928750 0.000000 0.112500
0.994375 0.000000 0.112500
1.000000 0.000000 0.112500
0.010000 0.059375 0.112500
0.075625 0.059375 0.112500
0.141250 0.059375 0.112500
0.206875 0.059375 0.112500
0.272500 0.059375 0.112500
0.338125 0.059375 0.112500
0.403750 0.059375 0.112500
0.469375 0.059375 0.112500
0.535000 0.059375 0.112500
0.600625 0.059375 0.112500
0.666250 0.059375 0.112500
0.731875 0.059375 0.112500
0.797500 0.059375 0.112500
0.863125 0.059375 0.112500
0.928750 0.059375 0.112500
0.994375 0.059375 0.112500
1.000000 0.059375 0.112500
0.010000 0.118750 0.112500
0.075625 0.118750 0.112500
0.141250 0.118750 0.112500
0.206875 0.118750 0.112500
0.272500 0.118750 0.112500
0.338125 0.118750 0.112500
0.403750 0.118750 0.112500
0.469375 0.118750 0.112500
0.535000 0.118750 0.112500
0.600625 0.118750 0.112500
0.666250 0.118750 0.112500
0.731875 0.118750 0.112500
0.797500 0.118750 0.112500
0.863125 0.118750 0.112500
0.928750 0.118750 0.112500
0.994375 0.118750 0.112500
1.000000 0.118750 0.112500
0.010000 0.178125 0.112500
0.075625 0.178125 0.112500
0.141250 0.178125 0.112500
0.206875 0.178125 0.112500
0.272500 0.178125 0.112500
0.338125 0.178125 0.112500
0.403750 0.178125 0.112500
0.469375 0.178125 0.112500
0.535000 0.178125 0.112500
0.600625 0.178125 0.112500
0.666250 0.178125 0.112500
0.731875 0.178125 0.112500
0.797500 0.178125 0.112500
0.863125 0.178125 0.112500
0.928750 0.178125 0.112500
0.994375 0.178125 0.112500
1.000000 0.178125 0.112500
0.010000 0.237500 0.112500
0.075625 0.237500 0.112500
0.141250 0.237500 0.112500
0.206875 0.237500 0.112500
0.272500 0.237500 0.112500
0.338125 0.237500 0.112500
0.403750 0.237500 0.112500
0.469375 0.237500 0.112500
0.535000 0.237500 0.112500
0.600625 0.237500 0.112500
0.666250 0.237500 0.112500
0.731875 0.237500 0.112500
0.797500 0.237500 0.112500
0.863125 0.237500 0.112500
0.928750 0.237500 0.112500
0.994375 0.237500 0.112500
1.000000 0.237500 0.112500
0.010000 0.296875 0.112500
0.075625 0.296875 0.112500
0.141250 0.296875 0.112500
0.206875 0.296875 0.112500
0.272500 0.296875 0.112500
0.338125 0.296875 0.112500
0.403750 0.296875 0.112500
0.469375 0.296875 0.112500
0.535000 0.296875 0.112500
0.600625 0.296875 0.112500
0.666250 0.296875 0.112500
0.731875 0.296875 0.112500
0.797500 0.296875 0.112500
0.863125 0.296875 0.112500
0.928750 0.296875 0.112500
0.994375 0.296875 0.112500
1.000000 0.296875 0.112500
0.010000 0.356250 0.112500
0.075625 0.356250 0.112500
0.141250 0.356250 0.112500
0.206875 0.356250 0.112500
0.272500 0.356250 0.112500
0.338125 0.356250 0.112500
0.403750 0.356250 0.112500
0.469375 0.356250 0.112500
0.535000 0.356250 0.112500
0.600625 0.356250 0.112500
0.666250 0.356250 0.112500
0.731875 0.356250 0.112500
0.797500 0.356250 0.112500
0.863125 0.356250 0.112500
0.928750 0.356250 0.112500
0.994375 0.356250 0.112500
1.000000 0.356250 0.112500
0.010000 0.415625 0.112500
0.075625 0.415625 0.112500
0.141250 0.415625 0.112500
0.206875 0.415625 0.112500
0.272500 0.415625 0.112500
0.338125 0.415625 0.112500
0.403750 0.415625 0.112500
0.469375 0.415625 0.112500
0.535000 0.415625 0.112500
0.600625 0.415625 0.112500
0.666250 0.415625 0.112500
0.731875 0.415625 0.112500
0.797500 0.415625 0.112500
0.863125 0.415625 0.112500
0.928750 0.415625 0.112500
0.994375 0.415625 0.112500
1.000000 0.415625 0.112500
0.010000 0.475000 0.112500
0.075625 0.475000 0.112500
0.141250 0.475000 0.112500
0.206875 0.475000 0.112500
0.272500 0.475000 0.112500
0.338125 0.475000 0.112500
0.403750 0.475000 0.112500
0.469375 0.475000 0.112500
0.535000 0.475000 0.112500
0.600625 0.475000 0.112500
0.666250 0.475000 0.112500
0.731875 0.475000 0.112500
0.797500 0.475000 0.112500
0.863125 0.475000 0.112500
0.928750 0.475000 0.112500
0.994375 0.475000 0.112500
1.000000 0.475000 0.112500
0.010000 0.534375 0.112500
0.075625 0.534375 0.112500
0.141250 0.534375 0.112500
0.206875 0.534375 0.112500
0.272500 0.534375 0.112500
0.338125 0.534375 0.112500
0.403750 0.534375 0.112500
0.469375 0.534375 0.112500
0.535000 0.534375 0.112500
0.600625 0.534375 0.112500
0.666250 0.534375 0.112500
0.731875 0.534375 0.112500
0.797500 0.534375 0.112500
0.863125 0.534375 0.112500
0.928750 0.534375 0.112500
0.994375 0.534375 0.112500
1.000000 0.534375 0.112500
0.010000 0.593750 0.112500
0.075625 0.593750 0.112500
0.141250 0.593750 0.112500
0.206875 0.593750 0.112500
0.272500 0.593750 0.112500
0.338125 0.593750 0.112500
0.403750 0.593750 0.112500
0.469375 0.593750 0.112500
0.535000 0.593750 0.112500
0.600625 0.593750 0.112500
0.666250 0.593750 0.112500
0.731875 0.593750 0.112500
0.797500 0.593750 0.112500
0.863125 0.593750 0.112500
0.928750 0.593750 0.112500
0.994375 0.593750 0.112500
1.000000 0.593750 0.112500
0.010000 0.653125 0.112500
0.075625 0.653125 0.112500
0.141250 0.653125 0.112500
0.206875 0.653125 0.112500
0.272500 0.653125 0.112500
0.338125 0.653125 0.112500
0.403750 0.653125 0.112500
0.469375 0.653125 0.112500
0.535000 0.653125 0.112500
0.600625 0.653125 0.112500
0.666250 0.653125 0.112500
0.731875 0.653125 0.112500
0.797500 0.653125 0.112500
0.863125 0.653125 0.112500
0.928750 0.653125 0.112500
0.994375 0.653125 0.112500
1.000000 0.653125 0.112500
0.010000 0.712500 0.112500
0.075625 0.712500 0.112500
0.141250 0.712500 0.112500
0.206875 0.712500 0.112500
0.272500 0.712500 0.112500
0.338125 0.712500 0.112500
0.403750 0.712500 0.112500
0.469375 0.712500 0.112500
0.535000 0.712500 0.112500
0.600625 0.712500 0.112500
0.666250 0.712500 0.112500
0.731875 0.712500 0.112500
0.797500 0.712500 0.112500
0.863125 0.712500 0.112500
0.928750 0.712500 0.112500
0.994375 0.712500 0.112500
1.000000 0.712500 0.112500
0.010000 0.771875 0.112500
0.075625 0.771875 0.112500
0.141250 0.771875 0.112500
0.206875 0.771875 0.112500
0.272500 0.771875 0.112500
0.338125 0.771875 0.112500
0.403750 0.771875 0.112500
0.469375 0.771875 0.112500
0.535000 0.771875 0.112500
0.600625 0.771875 0.112500
0.666250 0.771875 0.112500
0.731875 0.771875 0.112500
0.797500 0.771875 0.112500
0.863125 0.771875 0.112500
0.928750 0.771875 0.112500
0.994375 0.771875 0.112500
1.000000 0.771875 0.112500
0.010000 0.831250 0.112500
0.075625 0.831250 0.112500
0.141250 0.831250 0.112500
0.206875 0.831250 0.112500
0.272500 0.831250 0.112500
0.338125 0.831250 0.112500
0.403750 0.831250 0.112500
0.469375 0.831250 0.112500
0.535000 0.831250 0.112500
0.600625 0.831250 0.112500
0.666250 0.831250 0.112500
0.731875 0.831250 0.112500
0.797500 0.831250 0.112500
0.863125 0.831250 0.112500
0.928750 0.831250 0.112500
0.994375 0.831250 0.112500
1.000000 0.831250 0.112500
0.010000 0.890625 0.112500
0.075625 0.890625 0.112500
0.141250 0.890625 0.112500
0.206875 0.890625 0.112500
0.272500 0.890625 0.112500
0.338125 0.890625 0.112500
0.403750 0.890625 0.112500
0.469375 0.890625 0.112500
0.535000 0.890625 0.112500
0.600625 0.890625 0.112500
0.666250 0.890625 0.112500
0.731875 0.890625 0.112500
0.797500 0.890625 0.112500
0.863125 0.890625 0.112500
0.928750 0.890625 0.112500
0.994375 0.890625 0.112500
1.000000 0.890625 0.112500
0.010000 0.950000 0.112500
0.075625 0.950000 0.112500
0.141250 0.950000 0.112500
0.206875 0.950000 0.112500
0.272500 0.950000 0.112500
0.338125 0.950000 0.112500
0.403750 0.950000 0.112500
0.469375 0.950000 0.112500
0.535000 0.950000 0.112500
0.600625 0.950000 0.112500
0.666250 0.950000 0.112500
0.731875 0.950000 0.112500
0.797500 0.950000 0.112500
0.863125 0.950000 0.112500
0.928750 0.950000 0.112500
0.994375 0.950000 0.112500
1.000000 0.950000 0.112500
0.010000 0.000000 0.168750
0.075625 0.000000 0.168750
0.141250 0.000000 0.168750
0.206875 0.000000 0.168750
0.272500 0.000000 0.168750
0.338125 0.000000 0.168750
0.403750 0.000000 0.168750
0.469375 0.000000 0.168750
0.535000 0.000000 0.168750
0.600625 0.000000 0.168750
0.666250 0.000000 0.168750
0.731875 0.000000 0.168750
0.797500 0.000000 0.168750
0.863125 0.000000 0.168750
