cfl/corpus-icc_fromcube_fuzzer/input_range_custom_3x3x3.cube
TITLE "Custom Input Range via LUT_3D_INPUT_RANGE"
# LUT_3D_INPUT_RANGE triggers isCustomInputRange() → curve set insertion
LUT_3D_INPUT_RANGE 0.0625 0.9375
LUT_3D_SIZE 3
0.0625 0.0625 0.0625
0.5 0.0625 0.0625
0.9375 0.0625 0.0625
0.0625 0.5 0.0625
0.5 0.5 0.0625
0.9375 0.5 0.0625
0.0625 0.9375 0.0625
0.5 0.9375 0.0625
0.9375 0.9375 0.0625
0.0625 0.0625 0.5
0.5 0.0625 0.5
0.9375 0.0625 0.5
0.0625 0.5 0.5
0.5 0.5 0.5
0.9375 0.5 0.5
0.0625 0.9375 0.5
0.5 0.9375 0.5
0.9375 0.9375 0.5
0.0625 0.0625 0.9375
0.5 0.0625 0.9375
0.9375 0.0625 0.9375
0.0625 0.5 0.9375
0.5 0.5 0.9375
0.9375 0.5 0.9375
0.0625 0.9375 0.9375
0.5 0.9375 0.9375
0.9375 0.9375 0.9375
