cfl/corpus-icc_fromcube_fuzzer/skia_grid_lut_4x4x4.cube
TITLE "Skia 64-Slice Grid LUT"
# Matches Skia RuntimeEffect LUT shader: 64 color slices in 8x8 grid
# Tests bilinear interpolation at slice boundaries
# Values include slight out-of-range to test clamping
LUT_3D_INPUT_RANGE -0.003 1.003
LUT_3D_SIZE 4

0.047426 0.047426 0.047426
0.268941 0.047426 0.047426
0.731059 0.047426 0.047426
0.952574 0.047426 0.047426
0.047426 0.268941 0.047426
0.268941 0.268941 0.047426
0.731059 0.268941 0.047426
0.952574 0.268941 0.047426
0.047426 0.731059 0.047426
0.268941 0.731059 0.047426
0.731059 0.731059 0.047426
0.952574 0.731059 0.047426
0.047426 0.952574 0.047426
0.268941 0.952574 0.047426
0.731059 0.952574 0.047426
0.952574 0.952574 0.047426
0.047426 0.047426 0.268941
0.268941 0.047426 0.268941
0.731059 0.047426 0.268941
0.952574 0.047426 0.268941
0.047426 0.268941 0.268941
0.268941 0.268941 0.268941
0.731059 0.268941 0.268941
0.952574 0.268941 0.268941
0.047426 0.731059 0.268941
0.268941 0.731059 0.268941
0.731059 0.731059 0.268941
0.952574 0.731059 0.268941
0.047426 0.952574 0.268941
0.268941 0.952574 0.268941
0.731059 0.952574 0.268941
0.952574 0.952574 0.268941
0.047426 0.047426 0.731059
0.268941 0.047426 0.731059
0.731059 0.047426 0.731059
0.952574 0.047426 0.731059
0.047426 0.268941 0.731059
0.268941 0.268941 0.731059
0.731059 0.268941 0.731059
0.952574 0.268941 0.731059
0.047426 0.731059 0.731059
0.268941 0.731059 0.731059
0.731059 0.731059 0.731059
0.952574 0.731059 0.731059
0.047426 0.952574 0.731059
0.268941 0.952574 0.731059
0.731059 0.952574 0.731059
0.952574 0.952574 0.731059
0.047426 0.047426 0.952574
0.268941 0.047426 0.952574
0.731059 0.047426 0.952574
0.952574 0.047426 0.952574
0.047426 0.268941 0.952574
0.268941 0.268941 0.952574
0.731059 0.268941 0.952574
0.952574 0.268941 0.952574
0.047426 0.731059 0.952574
0.268941 0.731059 0.952574
0.731059 0.731059 0.952574
0.952574 0.731059 0.952574
0.047426 0.952574 0.952574
0.268941 0.952574 0.952574
0.731059 0.952574 0.952574
0.952574 0.952574 0.952574
