cfl/icc_fromcube_fuzzer_seed_corpus/input_range_video_5x5x5.cube
TITLE "Input Range + Video Range"
# Tests LUT_3D_INPUT_RANGE keyword with video range flags
LUT_3D_INPUT_RANGE 0.0625 0.9375
LUT_IN_VIDEO_RANGE
LUT_OUT_VIDEO_RANGE
# Color grading with video levels
LUT_3D_SIZE 5
0.0625 0.0625 0.0625
0.2891 0.0625 0.0625
0.5 0.0625 0.0625
0.7109 0.0625 0.0625
0.9375 0.0625 0.0625
0.0625 0.2891 0.0625
0.2891 0.2891 0.0625
0.5 0.2891 0.0625
0.7109 0.2891 0.0625
0.9375 0.2891 0.0625
0.0625 0.5 0.0625
0.2891 0.5 0.0625
0.5 0.5 0.0625
0.7109 0.5 0.0625
0.9375 0.5 0.0625
0.0625 0.7109 0.0625
0.2891 0.7109 0.0625
0.5 0.7109 0.0625
0.7109 0.7109 0.0625
0.9375 0.7109 0.0625
0.0625 0.9375 0.0625
0.2891 0.9375 0.0625
0.5 0.9375 0.0625
0.7109 0.9375 0.0625
0.9375 0.9375 0.0625
0.0625 0.0625 0.2891
0.2891 0.0625 0.2891
0.5 0.0625 0.2891
0.7109 0.0625 0.2891
0.9375 0.0625 0.2891
0.0625 0.2891 0.2891
0.2891 0.2891 0.2891
0.5 0.2891 0.2891
0.7109 0.2891 0.2891
0.9375 0.2891 0.2891
0.0625 0.5 0.2891
0.2891 0.5 0.2891
0.5 0.5 0.2891
0.7109 0.5 0.2891
0.9375 0.5 0.2891
0.0625 0.7109 0.2891
0.2891 0.7109 0.2891
0.5 0.7109 0.2891
0.7109 0.7109 0.2891
0.9375 0.7109 0.2891
0.0625 0.9375 0.2891
0.2891 0.9375 0.2891
0.5 0.9375 0.2891
0.7109 0.9375 0.2891
0.9375 0.9375 0.2891
0.0625 0.0625 0.5
0.2891 0.0625 0.5
0.5 0.0625 0.5
0.7109 0.0625 0.5
0.9375 0.0625 0.5
0.0625 0.2891 0.5
0.2891 0.2891 0.5
0.5 0.2891 0.5
0.7109 0.2891 0.5
0.9375 0.2891 0.5
0.0625 0.5 0.5
0.2891 0.5 0.5
0.5 0.5 0.5
0.7109 0.5 0.5
0.9375 0.5 0.5
0.0625 0.7109 0.5
0.2891 0.7109 0.5
0.5 0.7109 0.5
0.7109 0.7109 0.5
0.9375 0.7109 0.5
0.0625 0.9375 0.5
0.2891 0.9375 0.5
0.5 0.9375 0.5
0.7109 0.9375 0.5
0.9375 0.9375 0.5
0.0625 0.0625 0.7109
0.2891 0.0625 0.7109
0.5 0.0625 0.7109
0.7109 0.0625 0.7109
0.9375 0.0625 0.7109
0.0625 0.2891 0.7109
0.2891 0.2891 0.7109
0.5 0.2891 0.7109
0.7109 0.2891 0.7109
0.9375 0.2891 0.7109
0.0625 0.5 0.7109
0.2891 0.5 0.7109
0.5 0.5 0.7109
0.7109 0.5 0.7109
0.9375 0.5 0.7109
0.0625 0.7109 0.7109
0.2891 0.7109 0.7109
0.5 0.7109 0.7109
0.7109 0.7109 0.7109
0.9375 0.7109 0.7109
0.0625 0.9375 0.7109
0.2891 0.9375 0.7109
0.5 0.9375 0.7109
0.7109 0.9375 0.7109
0.9375 0.9375 0.7109
0.0625 0.0625 0.9375
0.2891 0.0625 0.9375
0.5 0.0625 0.9375
0.7109 0.0625 0.9375
0.9375 0.0625 0.9375
0.0625 0.2891 0.9375
0.2891 0.2891 0.9375
0.5 0.2891 0.9375
0.7109 0.2891 0.9375
0.9375 0.2891 0.9375
0.0625 0.5 0.9375
0.2891 0.5 0.9375
0.5 0.5 0.9375
0.7109 0.5 0.9375
0.9375 0.5 0.9375
0.0625 0.7109 0.9375
0.2891 0.7109 0.9375
0.5 0.7109 0.9375
0.7109 0.7109 0.9375
0.9375 0.7109 0.9375
0.0625 0.9375 0.9375
0.2891 0.9375 0.9375
0.5 0.9375 0.9375
0.7109 0.9375 0.9375
0.9375 0.9375 0.9375
