cfl/icc_fromcube_fuzzer_seed_corpus/negative_domain_3x3x3.cube
TITLE "Negative Domain Values"
# Tests negative input ranges and large output ranges
DOMAIN_MIN -1.0 -1.0 -1.0
DOMAIN_MAX 2.0 2.0 2.0
LUT_3D_SIZE 3
-0.5 -0.5 -0.5
0.0 -0.5 -0.5
1.5 -0.5 -0.5
-0.5 0.0 -0.5
0.0 0.0 -0.5
1.5 0.0 -0.5
-0.5 1.5 -0.5
0.0 1.5 -0.5
1.5 1.5 -0.5
-0.5 -0.5 0.0
0.0 -0.5 0.0
1.5 -0.5 0.0
-0.5 0.0 0.0
0.5 0.5 0.5
1.5 0.0 0.0
-0.5 1.5 0.0
0.0 1.5 0.0
1.5 1.5 0.0
-0.5 -0.5 1.5
0.0 -0.5 1.5
1.5 -0.5 1.5
-0.5 0.0 1.5
0.0 0.0 1.5
1.5 0.0 1.5
-0.5 1.5 1.5
0.0 1.5 1.5
1.5 1.5 1.5
