cfl/icc_fromcube_fuzzer_seed_corpus/warm_film_2x2x2.cube
# Film emulation LUT
TITLE "Warm Film Look"
# Simulates warm film color grading
LUT_3D_INPUT_RANGE 0.0 1.0
LUT_3D_SIZE 2
0.02 0.01 0.0
0.95 0.1 0.05
0.1 0.85 0.05
0.9 0.88 0.1
0.05 0.05 0.8
0.85 0.1 0.75
0.1 0.8 0.78
0.95 0.92 0.88
